F1 Grump/assets/track outlines/Silverstone - White_1.svg

<svg width="3936" height="2831" viewBox="0 0 3936 2831" fill="none" xmlns="http://www.w3.org/2000/svg">
<g clip-path="url(#clip0_13_812)">
<path d="M2319.24 175.22C2402.47 197.6 2464.88 264.78 2486.34 355.12C2511.03 459.12 2556.26 549.84 2577.82 569.12C2604.61 593.04 2637.12 621.98 2674.16 654.92C2997.3 942.44 3669.67 1540.73 3862.94 1761.85C3895.48 1799.08 3954.68 1904.85 3929.94 1993.94C3879.46 2175.76 3733.24 2195.49 3670.8 2203.94C3662.02 2205.14 3653.71 2206.25 3649.44 2207.33L3645.66 2208.27C3536.54 2235.07 3431.28 2276.12 3349.24 2323.85C3272.24 2368.61 3192.02 2409.21 3127.52 2441.85C3072.89 2469.48 3011.81 2500.37 2990.15 2516.17C2994.02 2527.92 3004.85 2546.8 3011.94 2559.17C3033.81 2597.31 3058.6 2640.54 3043.46 2684.26C3015.46 2765.26 2757.76 2855.15 2644.52 2824.68C2643.12 2824.3 2641.75 2823.92 2640.42 2823.5C2587.05 2807.22 2444.52 2637.5 2069.86 2167.82C1991.2 2069.2 1916.92 1976.04 1852.53 1897.05C1815.24 1851.29 1811.87 1756.2 1825.93 1710.83C1836.78 1675.83 1853.39 1634.57 1869.46 1594.7C1881 1566 1891.87 1539.06 1900 1516C1906.71 1496.94 1913.9 1479.85 1920.85 1463.31C1935.85 1427.59 1948.85 1396.75 1951.36 1358.82C1954.86 1305.62 1934.84 1248.6 1915.49 1193.46L1913.25 1187.08C1899.48 1147.72 1873.51 1097.62 1848.41 1049.14C1828.41 1010.46 1809.41 973.91 1795.83 941.56C1790.83 929.74 1784.89 916.87 1778.68 903.56C1749.96 841.56 1720.27 777.56 1737.68 727.56C1752.79 684.13 1812.53 679.47 1935.41 673.82C1977.13 671.89 2038.95 669.04 2058.5 662.44C2061.77 655.59 2063.35 640.39 2061.23 634.04C2046.12 613.8 1988.38 574.36 1922.75 539.54C1856.75 504.54 1765.12 469.26 1725.94 470.93C1687.34 472.56 1647.78 503.87 1605.94 537.01C1586.55 552.36 1566.5 568.22 1545.13 582.36C1419.37 665.54 1141.98 856.28 897.248 1024.59C722.248 1144.94 556.918 1258.59 471.628 1316.07C442.628 1335.6 413.978 1377.12 409.118 1406.7C403.988 1437.96 414.118 1480.33 431.758 1501.14C441.058 1512.14 483.358 1524.04 514.258 1532.75C576.628 1550.36 647.328 1570.29 681.688 1621.55C708.508 1661.55 714.688 1727 695.838 1770.61C678.088 1811.53 636.148 1861.1 571.648 1877.61C490.288 1898.37 369.808 1796.92 232.228 1672.32C216.848 1658.39 202.978 1645.83 191.228 1635.61C130.578 1582.67 73.5581 1501.4 42.4281 1423.53C9.59812 1341.53 -4.57188 1251.14 1.34812 1162.15C7.69812 1067.22 26.7781 942.78 45.2181 822.44C49.5581 794.09 53.8481 766.13 57.8681 739.14C70.5381 654 113.998 365.94 139.588 234.19C150.888 176.01 182.228 116.84 221.348 79.79C258.758 44.4 315.228 18.91 376.348 9.79004C457.288 -2.19996 597.128 -1.79996 692.798 3.66004C791.798 9.32004 997.798 21.07 1129.07 52.66C1257.79 83.54 1361.9 103.93 1430.15 111.66C1460.25 115.05 1503.9 101.66 1546.15 88.78C1601.91 71.7 1654.6 55.59 1699.45 67.54L1700.03 67.7C1757.62 83.2 1806.85 118.93 1854.46 153.51C1903.93 189.41 1950.89 223.36 2005.79 236.72C2067.34 251.64 2113.5 229.45 2162.36 205.95C2209.98 183.08 2259.22 159.4 2318.36 175.05L2319.24 175.22ZM2665 2752.63C2751.3 2775.85 2955.2 2693 2973.09 2658.91C2976.79 2648.1 2958.89 2616.91 2947.09 2596.26C2929.24 2565.16 2910.8 2532.99 2914.4 2500.21C2918.26 2465.13 2954.78 2445.31 3093.8 2375.01C3157.42 2342.84 3236.6 2302.81 3311.65 2259.14C3399.65 2207.91 3511.98 2164.03 3627.85 2135.57L3631.15 2134.76C3639.56 2132.63 3649.41 2131.3 3660.84 2129.76C3720.59 2121.7 3820.6 2108.21 3857.89 1973.92C3873.21 1918.69 3831.36 1839.34 3806.64 1811.05C3616.45 1593.46 2946.45 997.28 2624.45 710.77C2587.39 677.77 2554.84 648.84 2528.02 624.89C2484.71 586.25 2435.81 466.16 2413.57 372.4C2406.35 342.06 2380.86 269.25 2299.87 247.47L2299.21 247.29C2268.29 239.11 2239.38 251.84 2194.74 273.29C2141.69 298.8 2075.66 330.55 1988.14 309.29C1918.83 292.43 1863.67 252.53 1810.49 213.91C1766.49 181.91 1724.83 151.72 1680.56 139.81L1680.16 139.7C1655.99 133.26 1609.25 147.56 1568.01 160.17C1518.49 175.32 1467.31 191 1421.78 185.86C1331.78 175.71 1203.42 147.31 1111.62 125.3C986.868 95.3 785.368 83.82 688.548 78.3C576.098 71.87 452.238 74.12 387.338 83.77C341.738 90.55 298.898 109.35 272.788 134.06C244.848 160.52 221.378 205.42 213.038 248.43C187.698 378.72 144.478 665.4 131.818 750.16C127.818 777.25 123.488 805.3 119.118 833.76C100.918 952.55 82.1181 1075.39 75.9481 1167.13C70.7434 1245.05 83.0051 1323.16 111.838 1395.74C138.838 1463.31 188.108 1533.61 240.388 1579.25C252.388 1589.71 266.588 1602.58 282.388 1616.87C343.008 1671.8 504.068 1817.67 553.058 1805.13C591.428 1795.33 616.938 1764.4 627.138 1740.88C635.788 1720.95 631.928 1681.75 619.508 1663.23C600.508 1634.84 541.368 1618.16 493.878 1604.77C442.798 1590.36 398.688 1577.92 374.608 1549.49C342.668 1511.75 326.488 1448.07 335.248 1394.61C343.488 1344.51 383.248 1285.4 429.778 1254.05C514.778 1196.81 679.938 1083.21 854.778 962.97C1099.78 794.5 1377.44 603.53 1503.78 519.97C1522.49 507.59 1541.27 492.72 1559.44 478.35C1608.82 439.28 1659.89 398.88 1722.72 396.2C1804.72 392.72 1951.55 470.2 1957.72 473.47C1997.14 494.36 2092 547.73 2123.1 592C2139.71 615.65 2139.1 650.14 2132.98 674.52C2126.62 699.92 2113.22 718.89 2095.3 727.94C2067.52 741.94 2017.74 744.89 1938.81 748.52C1897.73 750.42 1831.81 753.45 1807.06 760.69C1807.06 786.95 1831.33 839.32 1846.52 872.07C1853.11 886.27 1859.43 899.96 1864.73 912.55C1877.19 942.13 1895.47 977.4 1914.82 1014.75C1941.11 1065.51 1968.3 1118.01 1983.82 1162.36L1986.04 1168.69C2006.87 1228.03 2030.46 1295.28 2025.95 1363.75C2022.63 1414.17 2005.95 1453.89 1989.77 1492.3C1983.26 1507.82 1976.5 1523.89 1970.53 1540.85C1961.87 1565.43 1950.69 1593.16 1938.86 1622.52C1923.37 1660.97 1907.33 1700.73 1897.4 1732.81C1887.67 1764.2 1895.15 1830.81 1910.53 1849.65C1975.16 1928.96 2049.53 2022.25 2128.36 2121.02C2331.65 2375.89 2609.8 2724.62 2663.36 2752.13L2665.05 2752.6" fill="white"/>
</g>
<defs>
<clipPath id="clip0_13_812">
<rect width="3936" height="2831" fill="white"/>
</clipPath>
</defs>
</svg>

<svg xmlns="http://www.w3.org/2000/svg" viewBox="0 0 3935.84 3505.21"><defs><style>.cls-1{fill:#fff;}</style></defs><title>Silverstone - White_1</title><g id="Layer_2" data-name="Layer 2"><g id="Layer_1-2" data-name="Layer 1"><path class="cls-1" d="M620.77,3179.49q-75.75,0-75.75,57.06,0,31.82,17.42,43.68t70.7,23.74q53.28,11.87,75.5,30.8t22.22,62.37q0,107.57-111.6,107.57-36.87,0-92.42-8.59l-18.18-2.52,4-32.32q68.67,9.09,104.54,9.09,74.73,0,74.74-70.2,0-28.27-16.42-40.65t-61.35-21q-59.09-12.61-83.83-32.57t-24.75-66.91q0-93.93,112.62-93.93,36.86,0,88.37,7.57l17.17,2.53-3.53,32.82Q650.06,3179.49,620.77,3179.49Z"/><path class="cls-1" d="M798,3500.16V3150.7h38.89v349.46Z"/><path class="cls-1" d="M1114.65,3500.16H922.24V3150.7h38.89v314.62h153.52Z"/><path class="cls-1" d="M1332.81,3150.7h40.4l-91.41,349.46H1195l-91.41-349.46h40.4l80.3,315.12h28.27Z"/><path class="cls-1" d="M1428.25,3500.16V3150.7h212.6V3185H1467.13v120.7h143.42v33.83H1467.13v126.25h173.72v34.34Z"/><path class="cls-1" d="M1746.39,3366.34v133.82h-38.88V3150.7h129.28q55.55,0,83.58,25.76t28,80.29q0,80.8-64.13,101.51l67.16,141.9H1908.5l-63.13-133.82Zm90.9-34.34q71.2,0,71.21-73.48T1836.79,3185h-90.4v147Z"/><path class="cls-1" d="M2115,3179.49q-75.75,0-75.75,57.06,0,31.82,17.43,43.68t70.7,23.74q53.26,11.87,75.49,30.8t22.22,62.37q0,107.57-111.6,107.57-36.87,0-92.42-8.59l-18.18-2.52,4-32.32q68.67,9.09,104.54,9.09,74.73,0,74.74-70.2,0-28.27-16.41-40.65t-61.36-21q-59.08-12.61-83.83-32.57t-24.75-66.91q0-93.93,112.62-93.93,36.86,0,88.37,7.57l17.17,2.53-3.53,32.82Q2144.33,3179.49,2115,3179.49Z"/><path class="cls-1" d="M2255.93,3185.55V3150.7h252.5v34.85H2401.88v314.61H2363.5V3185.55Z"/><path class="cls-1" d="M2809.92,3328q0,93.43-29.8,135.34t-108.32,41.91q-78.53,0-108.32-42.92t-29.8-135.09q0-92.16,30.3-136.86t107.57-44.69q77.26,0,107.81,44.44T2809.92,3328Zm-236.34-1q0,76.76,20.2,110.34t78,33.58q57.82,0,77.77-32.82T2769.52,3328q0-77.27-20.71-112.62T2671.29,3180q-56.8,0-77.26,35.1T2573.58,3327Z"/><path class="cls-1" d="M2881.12,3500.16V3150.7h72.72l133.82,315.12h10.61V3150.7h38.38v349.46h-71.21L2929.6,3185H2920v315.12Z"/><path class="cls-1" d="M3222.49,3500.16V3150.7H3435.1V3185H3261.38v120.7H3404.8v33.83H3261.38v126.25H3435.1v34.34Z"/><path class="cls-1" d="M2319.24,175.22c83.23,22.38,145.64,89.56,167.1,179.9,24.69,104,69.92,194.72,91.48,214,26.79,23.92,59.3,52.86,96.34,85.8,323.14,287.52,995.51,885.81,1188.78,1106.93,32.54,37.23,91.74,143,67,232.09-50.48,181.82-196.7,201.55-259.14,210-8.78,1.2-17.09,2.31-21.36,3.39l-3.78.94c-109.12,26.8-214.38,67.85-296.42,115.58-77,44.76-157.22,85.36-221.72,118-54.63,27.63-115.71,58.52-137.37,74.32,3.87,11.75,14.7,30.63,21.79,43,21.87,38.14,46.66,81.37,31.52,125.09-28,81-285.7,170.89-398.94,140.42-1.4-.38-2.77-.76-4.1-1.18-53.37-16.28-195.9-186-570.56-655.68-78.66-98.62-152.94-191.78-217.33-270.77-37.29-45.76-40.66-140.85-26.6-186.22,10.85-35,27.46-76.26,43.53-116.13C1881,1566,1891.87,1539.06,1900,1516c6.71-19.06,13.9-36.15,20.85-52.69,15-35.72,28-66.56,30.51-104.49,3.5-53.2-16.52-110.22-35.87-165.36l-2.24-6.38c-13.77-39.36-39.74-89.46-64.84-137.94-20-38.68-39-75.23-52.58-107.58-5-11.82-10.94-24.69-17.15-38-28.72-62-58.41-126-41-176,15.11-43.43,74.85-48.09,197.73-53.74,41.72-1.93,103.54-4.78,123.09-11.38,3.27-6.85,4.85-22.05,2.73-28.4-15.11-20.24-72.85-59.68-138.48-94.5-66-35-157.63-70.28-196.81-68.61-38.6,1.63-78.16,32.94-120,66.08-19.39,15.35-39.44,31.21-60.81,45.35-125.76,83.18-403.15,273.92-647.88,442.23-175,120.35-340.33,234-425.62,291.48-29,19.53-57.65,61.05-62.51,90.63-5.13,31.26,5,73.63,22.64,94.44,9.3,11,51.6,22.9,82.5,31.61,62.37,17.61,133.07,37.54,167.43,88.8,26.82,40,33,105.45,14.15,149.06-17.75,40.92-59.69,90.49-124.19,107-81.36,20.76-201.84-80.69-339.42-205.29-15.38-13.93-29.25-26.49-41-36.71-60.65-52.94-117.67-134.21-148.8-212.08-32.83-82-47-172.39-41.08-261.38,6.35-94.93,25.43-219.37,43.87-339.71,4.34-28.35,8.63-56.31,12.65-83.3C70.54,654,114,365.94,139.59,234.19c11.3-58.18,42.64-117.35,81.76-154.4,37.41-35.39,93.88-60.88,155-70C457.29-2.2,597.13-1.8,692.8,3.66c99,5.66,305,17.41,436.27,49,128.72,30.88,232.83,51.27,301.08,59,30.1,3.39,73.75-10,116-22.88,55.76-17.08,108.45-33.19,153.3-21.24l.58.16c57.59,15.5,106.82,51.23,154.43,85.81,49.47,35.9,96.43,69.85,151.33,83.21,61.55,14.92,107.71-7.27,156.57-30.77,47.62-22.87,96.86-46.55,156-30.9ZM2665,2752.63c86.3,23.22,290.2-59.63,308.09-93.72,3.7-10.81-14.2-42-26-62.65-17.85-31.1-36.29-63.27-32.69-96.05,3.86-35.08,40.38-54.9,179.4-125.2,63.62-32.17,142.8-72.2,217.85-115.87,88-51.23,200.33-95.11,316.2-123.57l3.3-.81c8.41-2.13,18.26-3.46,29.69-5,59.75-8.06,159.76-21.55,197.05-155.84,15.32-55.23-26.53-134.58-51.25-162.87-190.19-217.59-860.19-813.77-1182.19-1100.28-37.06-33-69.61-61.93-96.43-85.88-43.31-38.64-92.21-158.73-114.45-252.49-7.22-30.34-32.71-103.15-113.7-124.93l-.66-.18c-30.92-8.18-59.83,4.55-104.47,26-53.05,25.51-119.08,57.26-206.6,36-69.31-16.86-124.47-56.76-177.65-95.38-44-32-85.66-62.19-129.93-74.1l-.4-.11c-24.17-6.44-70.91,7.86-112.15,20.47-49.52,15.15-100.7,30.83-146.23,25.69-90-10.15-218.36-38.55-310.16-60.56-124.75-30-326.25-41.48-423.07-47-112.45-6.43-236.31-4.18-301.21,5.47-45.6,6.78-88.44,25.58-114.55,50.29-27.94,26.46-51.41,71.36-59.75,114.37C187.7,378.72,144.48,665.4,131.82,750.16c-4,27.09-8.33,55.14-12.7,83.6-18.2,118.79-37,241.63-43.17,333.37a524.54,524.54,0,0,0,35.89,228.61c27,67.57,76.27,137.87,128.55,183.51,12,10.46,26.2,23.33,42,37.62,60.62,54.93,221.68,200.8,270.67,188.26,38.37-9.8,63.88-40.73,74.08-64.25,8.65-19.93,4.79-59.13-7.63-77.65-19-28.39-78.14-45.07-125.63-58.46-51.08-14.41-95.19-26.85-119.27-55.28-31.94-37.74-48.12-101.42-39.36-154.88,8.24-50.1,48-109.21,94.53-140.56,85-57.24,250.16-170.84,425-291.08,245-168.47,522.66-359.44,649-443,18.71-12.38,37.49-27.25,55.66-41.62,49.38-39.07,100.45-79.47,163.28-82.15,82-3.48,228.83,74,235,77.27C1997.14,494.36,2092,547.73,2123.1,592c16.61,23.65,16,58.14,9.88,82.52-6.36,25.4-19.76,44.37-37.68,53.42-27.78,14-77.56,16.95-156.49,20.58-41.08,1.9-107,4.93-131.75,12.17,0,26.26,24.27,78.63,39.46,111.38,6.59,14.2,12.91,27.89,18.21,40.48,12.46,29.58,30.74,64.85,50.09,102.2,26.29,50.76,53.48,103.26,69,147.61l2.22,6.33c20.83,59.34,44.42,126.59,39.91,195.06-3.32,50.42-20,90.14-36.18,128.55-6.51,15.52-13.27,31.59-19.24,48.55-8.66,24.58-19.84,52.31-31.67,81.67-15.49,38.45-31.53,78.21-41.46,110.29-9.73,31.39-2.25,98,13.13,116.84,64.63,79.31,139,172.6,217.83,271.37,203.29,254.87,481.44,603.6,535,631.11l1.69.47"/></g></g></svg>
